lib/assets/buttons/repeat_off.svg

<svg height="24" viewBox="0 0 24 24" width="24" xmlns="http://www.w3.org/2000/svg">
    <path d="m2 5.27 1.3473684-1.27 17.5999996 16.72-1.336842 1.28-3.157894-3h-9.1894741v3l-4.2105263-4 4.2105263-4v3h7.0842101l-7.0842101-6.73v.73h-2.1052632v-2.73zm15.789474 7.73h2.105263v4.18l-2.105263-2zm0-8v-3l4.210526 4-4.210526 4v-3h-8.6105266l-2.1052632-2z"
            stroke-width="1.025978" />
</svg>

<?xml version="1.0" encoding="UTF-8" standalone="no"?>
<svg
   xmlns:dc="http://purl.org/dc/elements/1.1/"
   xmlns:cc="http://creativecommons.org/ns#"
   xmlns:rdf="http://www.w3.org/1999/02/22-rdf-syntax-ns#"
   xmlns:svg="http://www.w3.org/2000/svg"
   xmlns="http://www.w3.org/2000/svg"
   id="svg6968"
   viewBox="0 0 24 24"
   height="24"
   width="24"
   version="1.1">
  <metadata
     id="metadata6974">
    <rdf:RDF>
      <cc:Work
         rdf:about="">
        <dc:format>image/svg+xml</dc:format>
        <dc:type
           rdf:resource="http://purl.org/dc/dcmitype/StillImage" />
        <dc:title></dc:title>
      </cc:Work>
    </rdf:RDF>
  </metadata>
  <defs
     id="defs6972" />
  <path
     style="stroke-width:1.02597833"
     id="path6966"
     d="M 2,5.27 3.3473684,4 20.947368,20.72 19.610526,22 16.452632,19 H 7.2631579 v 3 L 3.0526316,18 7.2631579,14 v 3 H 14.347368 L 7.2631579,10.27 V 11 H 5.1578947 V 8.27 L 2,5.27 M 17.789474,13 h 2.105263 v 4.18 l -2.105263,-2 V 13 m 0,-8 V 2 L 22,6 17.789474,10 V 7 H 9.1789474 L 7.0736842,5 Z" />
</svg>
